color/luts/asterix2_film_lin_lin_v000.spi1d
Version 1
From -0.125 1.125
Length 1289
Components 1
{
        -0.057500001
        -0.0570538323
        -0.0566076635
        -0.0561614947
        -0.0557153259
        -0.0552691572
        -0.0548229884
        -0.0543768196
        -0.0539306508
        -0.0534844821
        -0.0530383133
        -0.0525921445
        -0.0521459757
        -0.051699807
        -0.0512536382
        -0.0508074694
        -0.0503613006
        -0.0499151319
        -0.0494689631
        -0.0490227943
        -0.0485766255
        -0.0481304567
        -0.047684288
        -0.0472381192
        -0.0467919504
        -0.0463457816
        -0.0458996129
        -0.0454534441
        -0.0450072753
        -0.0445611065
        -0.0441149377
        -0.043668769
        -0.0432226002
        -0.0427764314
        -0.0423302626
        -0.0418840939
        -0.0414379251
        -0.0409917563
        -0.0405455875
        -0.0400994188
        -0.03965325
        -0.0392070812
        -0.0387609124
        -0.0383147437
        -0.0378685749
        -0.0374224061
        -0.0369762373
        -0.0365300686
        -0.0360838998
        -0.035637731
        -0.0351915622
        -0.0347453935
        -0.0342992247
        -0.0338530559
        -0.0334068871
        -0.0329607184
        -0.0325145496
        -0.0320683808
        -0.031622212
        -0.0311760432
        -0.0307298745
        -0.0302837057
        -0.0298375369
        -0.0293913681
        -0.0289451994
        -0.0284990306
        -0.0280528618
        -0.027606693
        -0.0271605243
        -0.0267143555
        -0.0262681867
        -0.0258220179
        -0.0253758492
        -0.0249296804
        -0.0244835116
        -0.0240373428
        -0.023591174
        -0.0231450053
        -0.0226988365
        -0.0222526677
        -0.0218064989
        -0.0213603302
        -0.0209141614
        -0.0204679926
        -0.0200218238
        -0.0195756551
        -0.0191294863
        -0.0186833175
        -0.0182371487
        -0.01779098
        -0.0173448112
        -0.0168986424
        -0.0164524736
        -0.0160063048
        -0.0155601361
        -0.0151139673
        -0.0146677985
        -0.0142216297
        -0.013775461
        -0.0133292922
        -0.0128831234
        -0.0124369546
        -0.0119907859
        -0.0115446171
        -0.0110984483
        -0.0106522795
        -0.0102061108
        -0.009759942
        -0.0093137732
        -0.0088676044
        -0.0084214356
        -0.0079752669
        -0.0075290981
        -0.0070829293
        -0.0066367605
        -0.0061905918
        -0.005744423
        -0.0052982542
        -0.0048520854
        -0.0044059167
        -0.0039597479
        -0.0035135791
        -0.0030674103
        -0.0026212416
        -0.0021750728
        -0.001728904
        -0.0012827352
        -0.0008365665
        -0.0003903977
        5.58017e-05
        0.0005044144
        0.0009569313
        0.0014133439
        0.0018736437
        0.0023378223
        0.0028058714
        0.0032777823
        0.0037535468
        0.0042331564
        0.0047166027
        0.0052038771
        0.0056949714
        0.006189877
        0.0066885856
        0.0071910887
        0.0076973778
        0.0082074446
        0.0087212806
        0.0092388774
        0.0097602265
        0.0102853196
        0.0108141481
        0.0113467037
        0.0118829779
        0.0124229623
        0.0129666484
        0.0135140279
        0.0140650922
        0.0146198331
        0.015178242
        0.0157403104
        0.0163060301
        0.0168753924
        0.0174483891
        0.0180250117
        0.0186052517
        0.0191891008
        0.0197765504
        0.0203675921
        0.0209622176
        0.0215604184
        0.022162186
        0.0227675121
        0.0233763881
        0.0239888057
        0.0246047565
        0.0252242319
        0.0258472237
        0.0264737232
        0.0271037222
        0.0277372121
        0.0283741846
        0.0290146312
        0.0296585435
        0.030305913
        0.0309567313
        0.0316109901
        0.0322686808
        0.032929795
        0.0335943243
        0.0342622603
        0.0349335945
        0.0356083185
        0.0362864239
        0.0369679022
        0.037652745
        0.0383409439
        0.0390324904
        0.0397273762
        0.0404255927
        0.0411271316
        0.0418319843
        0.0425401426
        0.043251598
        0.0439663419
        0.0446843661
        0.045405662
        0.0461302212
        0.0468580354
        0.047589096
        0.0483233946
        0.0490609229
        0.0498016723
        0.0505456345
        0.0512928009
        0.0520431633
        0.0527967131
        0.0535534419
        0.0543133413
        0.0550764029
        0.0558426182
        0.0566119787
        0.0573844762
        0.058160102
        0.0589388479
        0.0597207053
        0.0605056659
        0.0612937211
        0.0620848627
        0.062879082
        0.0636763708
        0.0644767206
        0.0652801229
        0.0660865693
        0.0668960514
        0.0677085608
        0.068524089
        0.0693426275
        0.0701641681
        0.0709887021
        0.0718162213
        0.0726467171
        0.0734801811
        0.074316605
        0.0751559802
        0.0759982984
        0.0768435511
        0.0776917298
        0.0785428262
        0.0793968318
        0.0802537382
        0.0811135369
        0.0819762196
        0.0828417778
        0.083710203
        0.0845814868
        0.0854556208
        0.0863325966
        0.0872124057
        0.0880950398
        0.0889804903
        0.0898687488
        0.090759807
        0.0916536563
        0.0925502883
        0.0934496947
        0.094351867
        0.0952567967
        0.0961644754
        0.0970748947
        0.0979880462
        0.0989039214
        0.0998225119
        0.1007438092
        0.101667805
        0.1025944908
        0.1035238581
        0.1044558986
        0.1053906038
        0.1063279653
        0.1072679746
        0.1082106233
        0.109155903
        0.1101038052
        0.1110543216
        0.1120074437
        0.112963163
        0.1139214711
        0.1148823596
        0.1158458201
        0.1168118441
        0.1177804232
        0.118751549
        0.119725213
        0.1207014069
        0.121680122
        0.1226613502
        0.1236450828
        0.1246313116
        0.1256200279
        0.1266112235
        0.1276048899
        0.1286010186
        0.1295996013
        0.1306006294
        0.1316040946
        0.1326099884
        0.1336183025
        0.1346290283
        0.1356421574
        0.1366576814
        0.1376755919
        0.1386958805
        0.1397185386
        0.1407435579
        0.14177093
        0.1428006464
        0.1438326987
        0.1448670784
        0.1459037772
        0.1469427865
        0.147984098
        0.1490277032
        0.1500735937
        0.1511217611
        0.1521721969
        0.1532248928
        0.1542798401
        0.1553370307
        0.1563964559
        0.1574581074
        0.1585219768
        0.1595880556
        0.1606563353
        0.1617268076
        0.162799464
        0.1638742962
        0.1649512955
        0.1660304537
        0.1671117623
        0.1681952129
        0.169280797
        0.1703685062
        0.171458332
        0.1725502661
        0.1736443
        0.1747404253
        0.1758386335
        0.1769389162
        0.1780412651
        0.1791456715
        0.1802521272
        0.1813606237
        0.1824711525
        0.1835837053
        0.1846982735
        0.1858148488
        0.1869334228
        0.1880539869
        0.1891765328
        0.1903010521
        0.1914275362
        0.1925559768
        0.1936863655
        0.1948186938
        0.1959529532
        0.1970891354
        0.198227232
        0.1993672344
        0.2005091342
        0.2016529231
        0.2027985926
        0.2039461342
        0.2050955396
        0.2062468003
        0.2073999078
        0.2085548538
        0.2097116298
        0.2108702273
        0.212030638
        0.2131928534
        0.2143568651
        0.2155226646
        0.2166902435
        0.2178595935
        0.2190307059
        0.2202035726
        0.2213781848
        0.2225545344
        0.2237326128
        0.2249124116
        0.2260939223
        0.2272771366
        0.228462046
        0.229648642
        0.2308369163
        0.2320268604
        0.2332184659
        0.2344117243
        0.2356066273
        0.2368031663
        0.238001333
        0.2392011189
        0.2404025155
        0.2416055146
        0.2428101076
        0.244016286
        0.2452240416
        0.2464333657
        0.2476442501
        0.2488566862
        0.2500706657
        0.2512861801
        0.252503221
        0.2537217799
        0.2549418484
        0.2561634181
        0.2573864805
        0.2586110273
        0.25983705
        0.2610645401
        0.2622934892
        0.263523889
        0.2647557309
        0.2659890065
        0.2672237074
        0.2684598252
        0.2696973515
        0.2709362777
        0.2721765955
        0.2734182965
        0.2746613722
        0.2759058142
        0.277151614
        0.2783987632
        0.2796472534
        0.2808970762
        0.2821482231
        0.2834006857
        0.2846544555
        0.2859095242
        0.2871658833
        0.2884235243
        0.2896824389
        0.2909426186
        0.292204055
        0.2934667396
        0.294730664
        0.2959958198
        0.2972621985
        0.2985297918
        0.2997985911
        0.3010685881
        0.3023397744
        0.3036121414
        0.3048856808
        0.3061603841
        0.3074362429
        0.3087132488
        0.3099913933
        0.311270668
        0.3125510645
        0.3138325743
        0.315115189
        0.3163989002
        0.3176836995
        0.3189695784
        0.3202565284
        0.3215445413
        0.3228336084
        0.3241237214
        0.3254148719
        0.3267070514
        0.3280002515
        0.3292944638
        0.3305896798
        0.3318858911
        0.3331830893
        0.334481266
        0.3357804126
        0.3370805208
        0.3383815822
        0.3396835882
        0.3409865306
        0.3422904008
        0.3435951904
        0.3449008911
        0.3462074942
        0.3475149915
        0.3488233745
        0.3501326348
        0.3514427639
        0.3527537534
        0.3540655949
        0.3553782799
        0.3566918
        0.3580061468
        0.3593213118
        0.3606372867
        0.3619540629
        0.3632716321
        0.3645899858
        0.3659091156
        0.367229013
        0.3685496697
        0.3698710772
        0.371193227
        0.3725161108
        0.37383972
        0.3751640463
        0.3764890813
        0.3778148165
        0.3791412434
        0.3804683537
        0.3817961389
        0.3831245906
        0.3844537004
        0.3857834597
        0.3871138602
        0.3884448935
        0.3897765512
        0.3911088247
        0.3924417057
        0.3937751857
        0.3951092563
        0.396443909
        0.3977791355
        0.3991149274
        0.400451276
        0.4017881732
        0.4031256103
        0.404463579
        0.4058020709
        0.4071410775
        0.4084805904
        0.4098206011
        0.4111611012
        0.4125020824
        0.4138435361
        0.4151854539
        0.4165278274
        0.4178706482
        0.4192139079
        0.4205575979
        0.4219017099
        0.4232462354
        0.4245911661
        0.4259364934
        0.427282209
        0.4286283044
        0.4299747712
        0.4313216009
        0.4326687852
        0.4340163155
        0.4353641835
        0.4367123808
        0.4380608988
        0.4394097292
        0.4407588635
        0.4421082934
        0.4434580103
        0.4448080058
        0.4461582716
        0.4475087991
        0.44885958
        0.4502106058
        0.451561868
        0.4529133584
        0.4542650683
        0.4556169894
        0.4569691133
        0.4583214316
        0.4596739357
        0.4610266172
        0.4623794679
        0.4637324791
        0.4650856424
        0.4664389496
        0.467792392
        0.4691459613
        0.4704996491
        0.4718534468
        0.4732073462
        0.4745613387
        0.4759154159
        0.4772695694
        0.4786237907
        0.4799780715
        0.4813324033
        0.4826867776
        0.4840411861
        0.4853956203
        0.4867500717
        0.488104532
        0.4894589927
        0.4908134453
        0.4921678815
        0.4935222929
        0.4948766708
        0.4962310071
        0.4975852932
        0.4989395206
        0.500293681
        0.5016477659
        0.503001767
        0.5043556756
        0.5057094836
        0.5070631823
        0.5084167633
        0.5097702184
        0.5111235389
        0.5124767165
        0.5138297427
        0.5151826092
        0.5165353074
        0.517887829
        0.5192401654
        0.5205923084
        0.5219442495
        0.5232959801
        0.524647492
        0.5259987766
        0.5273498255
        0.5287006303
        0.5300511826
        0.531401474
        0.5327514959
        0.53410124
        0.5354506979
        0.536799861
        0.538148721
        0.5394972695
        0.540845498
        0.5421933981
        0.5435409614
        0.5448881793
        0.5462350436
        0.5475815457
        0.5489276772
        0.5502734297
        0.5516187948
        0.5529637641
        0.554308329
        0.5556524812
        0.5569962122
        0.5583395137
        0.5596823771
        0.5610247941
        0.5623667562
        0.563708255
        0.565049282
        0.5663898288
        0.5677298871
        0.5690694483
        0.570408504
        0.5717470458
        0.5730850653
        0.574422554
        0.5757595035
        0.5770959054
        0.5784317512
        0.5797670325
        0.5811017409
        0.5824358679
        0.5837694052
        0.5851023442
        0.5864346766
        0.5877663939
        0.5890974877
        0.5904279496
        0.5917577711
        0.5930869437
        0.5944154592
        0.5957433089
        0.5970704846
        0.5983969777
        0.5997227799
        0.6010478827
        0.6023722776
        0.6036959563
        0.6050189103
        0.6063411312
        0.6076626106
        0.6089833399
        0.6103033109
        0.611622515
        0.6129409438
        0.6142585889
        0.6155754419
        0.6168914943
        0.6182067377
        0.6195211636
        0.6208347637
        0.6221475295
        0.6234594526
        0.6247705246
        0.6260807369
        0.6273900812
        0.6286985491
        0.6300061321
        0.6313128217
        0.6326186096
        0.6339234874
        0.6352274465
        0.6365304786
        0.6378325752
        0.6391337279
        0.6404339283
        0.6417331679
        0.6430314384
        0.6443287312
        0.6456250379
        0.6469203501
        0.6482146595
        0.6495079574
        0.6508002356
        0.6520914856
        0.6533816989
        0.6546708672
        0.6559589819
        0.6572460347
        0.6585320171
        0.6598169207
        0.6611007371
        0.6623834578
        0.6636650744
        0.6649455785
        0.6662249616
        0.6675032154
        0.6687803313
        0.6700563009
        0.6713311159
        0.6726047678
        0.6738772481
        0.6751485484
        0.6764186603
        0.6776875754
        0.6789552852
        0.6802217813
        0.6814870552
        0.6827510986
        0.684013903
        0.68527546
        0.6865357611
        0.6877947979
        0.6890525619
        0.6903090449
        0.6915642382
        0.6928181335
        0.6940707224
        0.6953219964
        0.6965719471
        0.697820566
        0.6990678447
        0.7003137749
        0.701558348
        0.7028015556
        0.7040433894
        0.7052838408
        0.7065229014
        0.7077605629
        0.7089968167
        0.7102316545
        0.7114650678
        0.7126970481
        0.7139275872
        0.7151566764
        0.7163843074
        0.7176104718
        0.7188351611
        0.7200583668
        0.7212800807
        0.7225002942
        0.7237189988
        0.7249361863
        0.7261518481
        0.7273659758
        0.7285785609
        0.7297895951
        0.7309990699
        0.7322069769
        0.7334133076
        0.7346180537
        0.7358212066
        0.737022758
        0.7382226994
        0.7394210224
        0.7406177186
        0.7418127795
        0.7430061967
        0.7441979617
        0.7453880662
        0.7465765017
        0.7477632598
        0.748948332
        0.7501317099
        0.7513133851
        0.7524933491
        0.7536715936
        0.75484811
        0.75602289
        0.7571959251
        0.7583672069
        0.759536727
        0.7607044769
        0.7618704481
        0.7630346324
        0.7641970212
        0.7653576061
        0.7665163786
        0.7676733304
        0.768828453
        0.769981738
        0.7711331769
        0.7722827613
        0.7734304828
        0.774576333
        0.7757203034
        0.7768623856
        0.7780025711
        0.7791408516
        0.7802772185
        0.7814116636
        0.7825441782
        0.7836747541
        0.7848033827
        0.7859300556
        0.7870547645
        0.7881775008
        0.7892982562
        0.7904170222
        0.7915337904
        0.7926485523
        0.7937612996
        0.7948720237
        0.7959807163
        0.7970873689
        0.7981919731
        0.7992945205
        0.8003950026
        0.801493411
        0.8025897373
        0.803683973
        0.8047761097
        0.805866139
        0.8069540524
        0.8080398416
        0.809123498
        0.8102050133
        0.8112843789
        0.8123615866
        0.8134366278
        0.8145094942
        0.8155801772
        0.8166486685
        0.8177149597
        0.8187790422
        0.8198409077
        0.8209005477
        0.8219579539
        0.8230131177
        0.8240660307
        0.8251166846
        0.8261650708
        0.827211181
        0.8282550067
        0.8292965395
        0.830335771
        0.8313726926
        0.8324072961
        0.8334395729
        0.8344695147
        0.8354971129
        0.8365223592
        0.8375452451
        0.8385657623
        0.8395839022
        0.8405996565
        0.8416130166
        0.8426239743
        0.843632521
        0.8446386483
        0.8456423478
        0.846643611
        0.8476424296
        0.848638795
        0.8496326989
        0.8506241329
        0.8516130884
        0.8525995571
        0.8535835305
        0.8545650002
        0.8555439578
        0.8565203949
        0.8574943029
        0.8584656736
        0.8594344983
        0.8604007688
        0.8613644766
        0.8623256132
        0.8632841702
        0.8642401393
        0.8651935118
        0.8661442796
        0.867092434
        0.8680379666
        0.8689808691
        0.869921133
        0.8708587499
        0.8717937113
        0.8727260088
        0.873655634
        0.8745825784
        0.8755068337
        0.8764283913
        0.8773472429
        0.8782633799
        0.8791767941
        0.880087477
        0.88099542
        0.8819006149
        0.8828030531
        0.8837027262
        0.8845996259
        0.8854937436
        0.8863850709
        0.8872735995
        0.8881593208
        0.8890422265
        0.8899223081
        0.8907995571
        0.8916739652
        0.892545524
        0.8934142249
        0.8942800596
        0.8951430195
        0.8960030964
        0.8968602818
        0.8977145671
        0.8985659441
        0.8994144043
        0.9002599391
        0.9011025403
        0.9019421994
        0.9027789078
        0.9036126573
        0.9044434394
        0.9052712457
        0.9060960676
        0.9069178968
        0.9077367249
        0.9085525434
        0.9093653439
        0.910175118
        0.9109818571
        0.911785553
        0.9125861972
        0.9133837811
        0.9141782965
        0.9149697349
        0.9157580878
        0.9165433468
        0.9173255034
        0.9181045494
        0.9188804761
        0.9196532752
        0.9204229383
        0.9211894569
        0.9219528226
        0.9227130269
        0.9234700615
        0.9242239179
        0.9249745876
        0.9257220622
        0.9264663334
        0.9272073926
        0.9279452315
        0.9286798416
        0.9294112144
        0.9301393416
        0.9308642148
        0.9315858254
        0.932304165
        0.9330192253
        0.9337309977
        0.9344394739
        0.9351446455
        0.9358465039
        0.9365450408
        0.9372402477
        0.9379321163
        0.938620638
        0.9393058044
        0.9399876071
        0.9406660377
        0.9413410878
        0.9420127489
        0.9426810125
        0.9433458703
        0.9440073138
        0.9446653346
        0.9453199243
        0.9459710744
        0.9466187765
        0.9472630221
        0.9479038029
        0.9485411104
        0.9491749361
        0.9498052717
        0.9504321086
        0.9510554386
        0.9516752531
        0.9522915437
        0.952904302
        0.9535135195
        0.9541191879
        0.9547212986
        0.9553198433
        0.9559148135
        0.9565062008
        0.9570939968
        0.957678193
        0.958258781
        0.9588357523
        0.9594090986
        0.9599788114
        0.9605448823
        0.9611073028
        0.9616660645
        0.962221159
        0.9627725779
        0.9633203126
        0.9638643549
        0.9644046962
        0.9649413281
        0.9654742422
        0.9660034301
        0.9665288833
        0.9670505934
        0.967568552
        0.9680827506
        0.9685931808
        0.9690998341
        0.9696027022
        0.9701017767
        0.9705970489
        0.9710885107
        0.9715761534
        0.9720599688
        0.9725399483
        0.9730160835
        0.973488366
        0.9739567873
        0.9744213391
        0.9748820129
        0.9753388003
        0.9757916927
        0.9762406819
        0.9766857594
        0.9771269166
        0.9775641453
        0.977997437
        0.9784267832
        0.9788521756
        0.9792736056
        0.9796910648
        0.9801045449
        0.9805140374
        0.9809195338
        0.9813210257
        0.9817185048
        0.9821119625
        0.9825013904
        0.9828867802
        0.9832681233
        0.9836454113
        0.9840186359
        0.9843877885
        0.9847528608
        0.9851138443
        0.9854707305
        0.9858235111
        0.9861721777
        0.9865167217
        0.9868571347
        0.9871934084
        0.9875255343
        0.987853504
        0.988177309
        0.9884969408
        0.9888123912
        0.9891236516
        0.9894307135
        0.9897335687
        0.9900322086
        0.9903266248
        0.9906168089
        0.9909027525
        0.991184447
        0.9914618842
        0.9917350555
        0.9920039525
        0.9922685668
        0.99252889
        0.9927849136
        0.9930366292
        0.9932840283
        0.9935271026
        0.9937658436
        0.9940002429
        0.994230292
        0.9944559825
        0.994677306
        0.9948942541
        0.9951068183
        0.9953149901
        0.9955187612
        0.9957181231
        0.9959130675
        0.9961035857
        0.9962896695
        0.9964713104
        0.9966485
        0.9968212298
        0.9969894914
        0.9971532764
        0.9973125763
        0.9974673827
        0.9976176872
        0.9977634813
        0.9979047567
        0.9980415048
        0.9981737173
        0.9983013857
        0.9984245016
        0.9985430566
        0.9986570422
        0.99876645
        0.9988712715
        0.9989714984
        0.9990671222
