color/luts/lin_to_srgb_12bits.spi1d
Version 1
From -0.125 1.125
Length 4101
Components 1
{
        -1.615
        -1.61106097561
        -1.60712195122
        -1.60318292683
        -1.59924390244
        -1.59530487805
        -1.59136585366
        -1.58742682927
        -1.58348780488
        -1.57954878049
        -1.5756097561
        -1.57167073171
        -1.56773170732
        -1.56379268293
        -1.55985365854
        -1.55591463415
        -1.55197560976
        -1.54803658537
        -1.54409756098
        -1.54015853659
        -1.5362195122
        -1.5322804878
        -1.52834146341
        -1.52440243902
        -1.52046341463
        -1.51652439024
        -1.51258536585
        -1.50864634146
        -1.50470731707
        -1.50076829268
        -1.49682926829
        -1.4928902439
        -1.48895121951
        -1.48501219512
        -1.48107317073
        -1.47713414634
        -1.47319512195
        -1.46925609756
        -1.46531707317
        -1.46137804878
        -1.45743902439
        -1.4535
        -1.44956097561
        -1.44562195122
        -1.44168292683
        -1.43774390244
        -1.43380487805
        -1.42986585366
        -1.42592682927
        -1.42198780488
        -1.41804878049
        -1.4141097561
        -1.41017073171
        -1.40623170732
        -1.40229268293
        -1.39835365854
        -1.39441463415
        -1.39047560976
        -1.38653658537
        -1.38259756098
        -1.37865853659
        -1.3747195122
        -1.3707804878
        -1.36684146341
        -1.36290243902
        -1.35896341463
        -1.35502439024
        -1.35108536585
        -1.34714634146
        -1.34320731707
        -1.33926829268
        -1.33532926829
        -1.3313902439
        -1.32745121951
        -1.32351219512
        -1.31957317073
        -1.31563414634
        -1.31169512195
        -1.30775609756
        -1.30381707317
        -1.29987804878
        -1.29593902439
        -1.292
        -1.28806097561
        -1.28412195122
        -1.28018292683
        -1.27624390244
        -1.27230487805
        -1.26836585366
        -1.26442682927
        -1.26048780488
        -1.25654878049
        -1.2526097561
        -1.24867073171
        -1.24473170732
        -1.24079268293
        -1.23685365854
        -1.23291463415
        -1.22897560976
        -1.22503658537
        -1.22109756098
        -1.21715853659
        -1.2132195122
        -1.2092804878
        -1.20534146341
        -1.20140243902
        -1.19746341463
        -1.19352439024
        -1.18958536585
        -1.18564634146
        -1.18170731707
        -1.17776829268
        -1.17382926829
        -1.1698902439
        -1.16595121951
        -1.16201219512
        -1.15807317073
        -1.15413414634
        -1.15019512195
        -1.14625609756
        -1.14231707317
        -1.13837804878
        -1.13443902439
        -1.1305
        -1.12656097561
        -1.12262195122
        -1.11868292683
        -1.11474390244
        -1.11080487805
        -1.10686585366
        -1.10292682927
        -1.09898780488
        -1.09504878049
        -1.0911097561
        -1.08717073171
        -1.08323170732
        -1.07929268293
        -1.07535365854
        -1.07141463415
        -1.06747560976
        -1.06353658537
        -1.05959756098
        -1.05565853659
        -1.0517195122
        -1.0477804878
        -1.04384146341
        -1.03990243902
        -1.03596341463
        -1.03202439024
        -1.02808536585
        -1.02414634146
        -1.02020731707
        -1.01626829268
        -1.01232926829
        -1.0083902439
        -1.00445121951
        -1.00051219512
        -0.996573170732
        -0.992634146341
        -0.988695121951
        -0.984756097561
        -0.980817073171
        -0.97687804878
        -0.97293902439
        -0.969
        -0.96506097561
        -0.96112195122
        -0.957182926829
        -0.953243902439
        -0.949304878049
        -0.945365853659
        -0.941426829268
        -0.937487804878
        -0.933548780488
        -0.929609756098
        -0.925670731707
        -0.921731707317
        -0.917792682927
        -0.913853658537
        -0.909914634146
        -0.905975609756
        -0.902036585366
        -0.898097560976
        -0.894158536585
        -0.890219512195
        -0.886280487805
        -0.882341463415
        -0.878402439024
        -0.874463414634
        -0.870524390244
        -0.866585365854
        -0.862646341463
        -0.858707317073
        -0.854768292683
        -0.850829268293
        -0.846890243902
        -0.842951219512
        -0.839012195122
        -0.835073170732
        -0.831134146341
        -0.827195121951
        -0.823256097561
        -0.819317073171
        -0.81537804878
        -0.81143902439
        -0.8075
        -0.80356097561
        -0.79962195122
        -0.795682926829
        -0.791743902439
        -0.787804878049
        -0.783865853659
        -0.779926829268
        -0.775987804878
        -0.772048780488
        -0.768109756098
        -0.764170731707
        -0.760231707317
        -0.756292682927
        -0.752353658537
        -0.748414634146
        -0.744475609756
        -0.740536585366
        -0.736597560976
        -0.732658536585
        -0.728719512195
        -0.724780487805
        -0.720841463415
        -0.716902439024
        -0.712963414634
        -0.709024390244
        -0.705085365854
        -0.701146341463
        -0.697207317073
        -0.693268292683
        -0.689329268293
        -0.685390243902
        -0.681451219512
        -0.677512195122
        -0.673573170732
        -0.669634146341
        -0.665695121951
        -0.661756097561
        -0.657817073171
        -0.65387804878
        -0.64993902439
        -0.646
        -0.64206097561
        -0.63812195122
        -0.634182926829
        -0.630243902439
        -0.626304878049
        -0.622365853659
        -0.618426829268
        -0.614487804878
        -0.610548780488
        -0.606609756098
        -0.602670731707
        -0.598731707317
        -0.594792682927
        -0.590853658537
        -0.586914634146
        -0.582975609756
        -0.579036585366
        -0.575097560976
        -0.571158536585
        -0.567219512195
        -0.563280487805
        -0.559341463415
        -0.555402439024
        -0.551463414634
        -0.547524390244
        -0.543585365854
        -0.539646341463
        -0.535707317073
        -0.531768292683
        -0.527829268293
        -0.523890243902
        -0.519951219512
        -0.516012195122
        -0.512073170732
        -0.508134146341
        -0.504195121951
        -0.500256097561
        -0.496317073171
        -0.49237804878
        -0.48843902439
        -0.4845
        -0.48056097561
        -0.47662195122
        -0.472682926829
        -0.468743902439
        -0.464804878049
        -0.460865853659
        -0.456926829268
        -0.452987804878
        -0.449048780488
        -0.445109756098
        -0.441170731707
        -0.437231707317
        -0.433292682927
        -0.429353658537
        -0.425414634146
        -0.421475609756
        -0.417536585366
        -0.413597560976
        -0.409658536585
        -0.405719512195
        -0.401780487805
        -0.397841463415
        -0.393902439024
        -0.389963414634
        -0.386024390244
        -0.382085365854
        -0.378146341463
        -0.374207317073
        -0.370268292683
        -0.366329268293
        -0.362390243902
        -0.358451219512
        -0.354512195122
        -0.350573170732
        -0.346634146341
        -0.342695121951
        -0.338756097561
        -0.334817073171
        -0.33087804878
        -0.32693902439
        -0.323
        -0.31906097561
        -0.31512195122
        -0.311182926829
        -0.307243902439
        -0.303304878049
        -0.299365853659
        -0.295426829268
        -0.291487804878
        -0.287548780488
        -0.283609756098
        -0.279670731707
        -0.275731707317
        -0.271792682927
        -0.267853658537
        -0.263914634146
        -0.259975609756
        -0.256036585366
        -0.252097560976
        -0.248158536585
        -0.244219512195
        -0.240280487805
        -0.236341463415
        -0.232402439024
        -0.228463414634
        -0.224524390244
        -0.220585365854
        -0.216646341463
        -0.212707317073
        -0.208768292683
        -0.204829268293
        -0.200890243902
        -0.196951219512
        -0.193012195122
        -0.189073170732
        -0.185134146341
        -0.181195121951
        -0.177256097561
        -0.173317073171
        -0.16937804878
        -0.16543902439
        -0.1615
        -0.15756097561
        -0.15362195122
        -0.149682926829
        -0.145743902439
        -0.141804878049
        -0.137865853659
        -0.133926829268
        -0.129987804878
        -0.126048780488
        -0.122109756098
        -0.118170731707
        -0.114231707317
        -0.110292682927
        -0.106353658537
        -0.102414634146
        -0.0984756097561
        -0.0945365853659
        -0.0905975609756
        -0.0866585365854
        -0.0827195121951
        -0.0787804878049
        -0.0748414634146
        -0.0709024390244
        -0.0669634146341
        -0.0630243902439
        -0.0590853658537
        -0.0551463414634
        -0.0512073170732
        -0.0472682926829
        -0.0433292682927
        -0.0393902439024
        -0.0354512195122
        -0.031512195122
        -0.0275731707317
        -0.0236341463415
        -0.0196951219512
        -0.015756097561
        -0.0118170731707
        -0.00787804878049
        -0.00393902439024
        0.0
        0.00393902439024
        0.00787804878049
        0.0118170731707
        0.015756097561
        0.0196951219512
        0.0236341463415
        0.0275731707317
        0.031512195122
        0.0354512195122
        0.0393902439024
        0.0432242323966
        0.0468506669575
        0.0503047807431
        0.0536071388937
        0.0567745806964
        0.0598210949896
        0.0627584485668
        0.0655966475876
        0.0683442831083
        0.0710087943549
        0.0735966724217
        0.0761136200483
        0.078564678497
        0.0809543294287
        0.0832865775337
        0.0855650181705
        0.0877928932016
        0.0899731374427
        0.0921084175808
        0.0942011649968
        0.0962536036186
        0.0982677736915
        0.100245552172
        0.102188670312
        0.104098728894
        0.105977211479
        0.107825495994
        0.109644864877
        0.111436514024
        0.113201560681
        0.11494105044
        0.116655963462
        0.118347220022
        0.120015685465
        0.121662174655
        0.123287455967
        0.124892254889
        0.126477257268
        0.12804311226
        0.129590434989
        0.131119808978
        0.132631788356
        0.134126899872
        0.135605644738
        0.13706850031
        0.138515921643
        0.139948342901
        0.141366178671
        0.142769825164
        0.144159661326
        0.145536049865
        0.146899338197
        0.148249859332
        0.149587932683
        0.150913864831
        0.152227950222
        0.153530471828
        0.154821701757
        0.156101901822
        0.157371324075
        0.158630211303
        0.159878797496
        0.161117308279
        0.162345961327
        0.163564966744
        0.164774527422
        0.165974839387
        0.167166092109
        0.168348468807
        0.16952214673
        0.170687297426
        0.171844086987
        0.172992676293
        0.174133221235
        0.175265872924
        0.176390777895
        0.177508078294
        0.178617912064
        0.179720413107
        0.180815711454
        0.181903933414
        0.182985201724
        0.184059635681
        0.185127351282
        0.186188461344
        0.187243075627
        0.188291300945
        0.189333241276
        0.190368997864
        0.191398669322
        0.192422351718
        0.193440138674
        0.194452121446
        0.195458389007
        0.196459028127
        0.197454123445
        0.198443757547
        0.199428011026
        0.200406962554
        0.201380688945
        0.202349265211
        0.203312764625
        0.204271258773
        0.205224817608
        0.206173509504
        0.207117401301
        0.208056558354
        0.208991044581
        0.209920922501
        0.210846253281
        0.211767096774
        0.212683511557
        0.213595554971
        0.214503283156
        0.215406751083
        0.21630601259
        0.217201120416
        0.218092126228
        0.218979080652
        0.219862033302
        0.220741032812
        0.221616126854
        0.222487362172
        0.223354784605
        0.224218439106
        0.225078369775
        0.225934619871
        0.226787231843
        0.227636247345
        0.228481707258
        0.229323651712
        0.230162120102
        0.230997151108
        0.231828782713
        0.23265705222
        0.233481996267
        0.234303650848
        0.235122051323
        0.235937232437
        0.236749228335
        0.237558072573
        0.238363798135
        0.239166437445
        0.239966022382
        0.24076258429
        0.241556153992
        0.2423467618
        0.243134437531
        0.243919210513
        0.2447011096
        0.245480163179
        0.246256399184
        0.247029845104
        0.247800527993
        0.248568474479
        0.249333710775
        0.250096262686
        0.250856155619
        0.25161341459
        0.252368064234
        0.253120128813
        0.253869632221
        0.254616597996
        0.255361049324
        0.256103009046
        0.25684249967
        0.257579543371
        0.258314162002
        0.259046377099
        0.259776209888
        0.260503681291
        0.261228811931
        0.26195162214
        0.262672131963
        0.263390361164
        0.26410632923
        0.26482005538
        0.265531558567
        0.266240857484
        0.266947970568
        0.267652916008
        0.268355711744
        0.269056375478
        0.269754924675
        0.270451376565
        0.271145748154
        0.271838056221
        0.272528317327
        0.273216547818
        0.273902763825
        0.274586981274
        0.275269215886
        0.27594948318
        0.276627798478
        0.27730417691
        0.277978633413
        0.27865118274
        0.279321839458
        0.279990617953
        0.280657532434
        0.281322596937
        0.281985825324
        0.282647231291
        0.283306828364
        0.28396462991
        0.284620649134
        0.285274899083
        0.28592739265
        0.286578142573
        0.287227161443
        0.287874461702
        0.288520055645
        0.289163955428
        0.289806173062
        0.290446720424
        0.291085609251
        0.291722851148
        0.292358457587
        0.292992439913
        0.293624809339
        0.294255576956
        0.294884753728
        0.295512350499
        0.296138377992
        0.296762846813
        0.297385767451
        0.298007150279
        0.298627005558
        0.299245343439
        0.299862173962
        0.300477507058
        0.301091352555
        0.301703720173
        0.302314619531
        0.302924060144
        0.303532051429
        0.304138602703
        0.304743723186
        0.305347422003
        0.305949708182
        0.30655059066
        0.307150078282
        0.307748179801
        0.308344903882
        0.308940259101
        0.309534253949
        0.31012689683
        0.310718196063
        0.311308159885
        0.31189679645
        0.312484113833
        0.313070120027
        0.313654822947
        0.314238230431
        0.314820350239
        0.315401190056
        0.315980757494
        0.316559060089
        0.317136105306
        0.317711900538
        0.318286453107
        0.318859770266
        0.319431859199
        0.32000272702
        0.32057238078
        0.32114082746
        0.321708073979
        0.322274127189
        0.322838993879
        0.323402680776
        0.323965194545
        0.324526541789
        0.32508672905
        0.325645762812
        0.3262036495
        0.326760395479
        0.327316007058
        0.327870490489
        0.328423851968
        0.328976097636
        0.329527233579
        0.330077265828
        0.330626200363
        0.331174043108
        0.33172079994
        0.332266476679
        0.332811079098
        0.333354612919
        0.333897083813
        0.334438497405
        0.334978859267
        0.335518174929
        0.336056449869
        0.336593689521
        0.337129899271
        0.337665084461
        0.338199250388
        0.338732402302
        0.339264545412
        0.339795684883
        0.340325825835
        0.340854973348
        0.341383132457
        0.34191030816
        0.342436505408
        0.342961729117
        0.34348598416
        0.34400927537
        0.344531607542
        0.345052985432
        0.345573413758
        0.346092897198
        0.346611440395
        0.347129047954
        0.347645724443
        0.348161474393
        0.348676302302
        0.349190212628
        0.349703209799
        0.350215298204
        0.3507264822
        0.35123676611
        0.351746154222
        0.352254650792
        0.352762260042
        0.353268986164
        0.353774833313
        0.354279805618
        0.354783907172
        0.355287142039
        0.355789514251
        0.356291027811
        0.356791686691
        0.357291494832
        0.357790456146
        0.358288574518
        0.3587858538
        0.359282297819
        0.359777910372
        0.360272695227
        0.360766656127
        0.361259796784
        0.361752120885
        0.36224363209
        0.362734334032
        0.363224230316
        0.363713324524
        0.364201620209
        0.364689120901
        0.365175830103
        0.365661751293
        0.366146887924
        0.366631243426
        0.367114821203
        0.367597624634
        0.368079657077
        0.368560921864
        0.369041422304
        0.369521161683
        0.370000143265
        0.370478370289
        0.370955845974
        0.371432573515
        0.371908556084
        0.372383796835
        0.372858298895
        0.373332065373
        0.373805099357
        0.374277403913
        0.374748982084
        0.375219836895
        0.375689971351
        0.376159388435
        0.37662809111
        0.377096082319
        0.377563364986
        0.378029942016
        0.378495816294
        0.378960990684
        0.379425468033
        0.37988925117
        0.380352342904
        0.380814746024
        0.381276463303
        0.381737497496
        0.382197851338
        0.382657527547
        0.383116528825
        0.383574857854
        0.3840325173
        0.384489509812
        0.38494583802
        0.38540150454
        0.38585651197
        0.38631086289
        0.386764559865
        0.387217605444
        0.387670002159
        0.388121752526
        0.388572859046
        0.389023324204
        0.389473150467
        0.389922340291
        0.390370896113
        0.390818820356
        0.391266115428
        0.391712783722
        0.392158827616
        0.392604249474
        0.393049051646
        0.393493236464
        0.39393680625
        0.394379763309
        0.394822109933
        0.395263848401
        0.395704980977
        0.39614550991
        0.396585437438
        0.397024765784
        0.397463497158
        0.397901633757
        0.398339177764
        0.398776131349
        0.39921249667
        0.399648275872
        0.400083471087
        0.400518084434
        0.40095211802
        0.401385573939
        0.401818454274
        0.402250761094
        0.402682496457
        0.403113662408
        0.403544260982
        0.403974294201
        0.404403764074
        0.4048326726
        0.405261021767
        0.40568881355
        0.406116049914
        0.406542732811
        0.406968864182
        0.40739444596
        0.407819480063
        0.408243968401
        0.408667912871
        0.40909131536
        0.409514177746
        0.409936501893
        0.410358289658
        0.410779542886
        0.411200263412
        0.411620453059
        0.412040113642
        0.412459246966
        0.412877854825
        0.413295939002
        0.413713501273
        0.414130543401
        0.414547067143
        0.414963074242
        0.415378566436
        0.415793545449
        0.416208012999
        0.416621970793
        0.41703542053
        0.417448363898
        0.417860802577
        0.418272738237
        0.418684172541
        0.419095107142
        0.419505543682
        0.419915483798
        0.420324929116
        0.420733881253
        0.421142341818
        0.421550312412
        0.421957794627
        0.422364790047
        0.422771300246
        0.423177326793
        0.423582871244
        0.423987935152
        0.424392520059
        0.424796627498
        0.425200258996
        0.425603416072
        0.426006100236
        0.426408312991
        0.426810055832
        0.427211330245
        0.427612137711
        0.428012479702
        0.428412357681
        0.428811773106
        0.429210727425
        0.429609222082
        0.430007258511
        0.430404838138
        0.430801962385
        0.431198632664
        0.431594850381
        0.431990616935
        0.432385933718
        0.432780802113
        0.4331752235
        0.433569199248
        0.433962730722
        0.434355819279
        0.434748466269
        0.435140673037
        0.435532440919
        0.435923771246
        0.436314665341
        0.436705124523
        0.437095150102
        0.437484743382
        0.437873905662
        0.438262638234
        0.438650942382
        0.439038819386
        0.439426270519
        0.439813297048
        0.440199900233
        0.440586081329
        0.440971841585
        0.441357182243
        0.441742104538
        0.442126609703
        0.442510698962
        0.442894373533
        0.44327763463
        0.443660483459
        0.444042921222
        0.444424949116
        0.444806568329
        0.445187780047
        0.445568585449
        0.445948985707
        0.44632898199
        0.446708575461
        0.447087767275
        0.447466558584
        0.447844950535
        0.448222944268
        0.448600540919
        0.448977741618
        0.449354547489
        0.449730959653
        0.450106979225
        0.450482607313
        0.450857845022
        0.451232693451
        0.451607153695
        0.451981226842
        0.452354913977
        0.452728216179
        0.453101134523
        0.453473670077
        0.453845823907
        0.454217597073
        0.454588990629
        0.454960005625
        0.455330643108
        0.455700904117
        0.45607078969
        0.456440300858
        0.456809438647
        0.457178204079
        0.457546598173
        0.457914621942
        0.458282276395
        0.458649562535
        0.459016481362
        0.459383033872
        0.459749221056
        0.4601150439
        0.460480503387
        0.460845600495
        0.461210336196
        0.461574711461
        0.461938727255
        0.462302384539
        0.462665684269
        0.463028627398
        0.463391214875
        0.463753447644
        0.464115326645
        0.464476852814
        0.464838027084
        0.465198850382
        0.465559323634
        0.465919447759
        0.466279223673
        0.466638652289
        0.466997734516
        0.467356471257
        0.467714863414
        0.468072911883
        0.468430617559
        0.468787981329
        0.46914500408
        0.469501686693
        0.469858030047
        0.470214035016
        0.470569702471
        0.470925033279
        0.471280028303
        0.471634688403
        0.471989014436
        0.472343007255
        0.472696667708
        0.473049996641
        0.473402994896
        0.473755663312
