color/luts/lin_to_rec709_12bits.spi1d
Version 1
From -0.125 1.125
Length 4101
Components 1
{
        -0.5625
        -0.56112804878
        -0.559756097561
        -0.558384146341
        -0.557012195122
        -0.555640243902
        -0.554268292683
        -0.552896341463
        -0.551524390244
        -0.550152439024
        -0.548780487805
        -0.547408536585
        -0.546036585366
        -0.544664634146
        -0.543292682927
        -0.541920731707
        -0.540548780488
        -0.539176829268
        -0.537804878049
        -0.536432926829
        -0.53506097561
        -0.53368902439
        -0.532317073171
        -0.530945121951
        -0.529573170732
        -0.528201219512
        -0.526829268293
        -0.525457317073
        -0.524085365854
        -0.522713414634
        -0.521341463415
        -0.519969512195
        -0.518597560976
        -0.517225609756
        -0.515853658537
        -0.514481707317
        -0.513109756098
        -0.511737804878
        -0.510365853659
        -0.508993902439
        -0.50762195122
        -0.50625
        -0.50487804878
        -0.503506097561
        -0.502134146341
        -0.500762195122
        -0.499390243902
        -0.498018292683
        -0.496646341463
        -0.495274390244
        -0.493902439024
        -0.492530487805
        -0.491158536585
        -0.489786585366
        -0.488414634146
        -0.487042682927
        -0.485670731707
        -0.484298780488
        -0.482926829268
        -0.481554878049
        -0.480182926829
        -0.47881097561
        -0.47743902439
        -0.476067073171
        -0.474695121951
        -0.473323170732
        -0.471951219512
        -0.470579268293
        -0.469207317073
        -0.467835365854
        -0.466463414634
        -0.465091463415
        -0.463719512195
        -0.462347560976
        -0.460975609756
        -0.459603658537
        -0.458231707317
        -0.456859756098
        -0.455487804878
        -0.454115853659
        -0.452743902439
        -0.45137195122
        -0.45
        -0.44862804878
        -0.447256097561
        -0.445884146341
        -0.444512195122
        -0.443140243902
        -0.441768292683
        -0.440396341463
        -0.439024390244
        -0.437652439024
        -0.436280487805
        -0.434908536585
        -0.433536585366
        -0.432164634146
        -0.430792682927
        -0.429420731707
        -0.428048780488
        -0.426676829268
        -0.425304878049
        -0.423932926829
        -0.42256097561
        -0.42118902439
        -0.419817073171
        -0.418445121951
        -0.417073170732
        -0.415701219512
        -0.414329268293
        -0.412957317073
        -0.411585365854
        -0.410213414634
        -0.408841463415
        -0.407469512195
        -0.406097560976
        -0.404725609756
        -0.403353658537
        -0.401981707317
        -0.400609756098
        -0.399237804878
        -0.397865853659
        -0.396493902439
        -0.39512195122
        -0.39375
        -0.39237804878
        -0.391006097561
        -0.389634146341
        -0.388262195122
        -0.386890243902
        -0.385518292683
        -0.384146341463
        -0.382774390244
        -0.381402439024
        -0.380030487805
        -0.378658536585
        -0.377286585366
        -0.375914634146
        -0.374542682927
        -0.373170731707
        -0.371798780488
        -0.370426829268
        -0.369054878049
        -0.367682926829
        -0.36631097561
        -0.36493902439
        -0.363567073171
        -0.362195121951
        -0.360823170732
        -0.359451219512
        -0.358079268293
        -0.356707317073
        -0.355335365854
        -0.353963414634
        -0.352591463415
        -0.351219512195
        -0.349847560976
        -0.348475609756
        -0.347103658537
        -0.345731707317
        -0.344359756098
        -0.342987804878
        -0.341615853659
        -0.340243902439
        -0.33887195122
        -0.3375
        -0.33612804878
        -0.334756097561
        -0.333384146341
        -0.332012195122
        -0.330640243902
        -0.329268292683
        -0.327896341463
        -0.326524390244
        -0.325152439024
        -0.323780487805
        -0.322408536585
        -0.321036585366
        -0.319664634146
        -0.318292682927
        -0.316920731707
        -0.315548780488
        -0.314176829268
        -0.312804878049
        -0.311432926829
        -0.31006097561
        -0.30868902439
        -0.307317073171
        -0.305945121951
        -0.304573170732
        -0.303201219512
        -0.301829268293
        -0.300457317073
        -0.299085365854
        -0.297713414634
        -0.296341463415
        -0.294969512195
        -0.293597560976
        -0.292225609756
        -0.290853658537
        -0.289481707317
        -0.288109756098
        -0.286737804878
        -0.285365853659
        -0.283993902439
        -0.28262195122
        -0.28125
        -0.27987804878
        -0.278506097561
        -0.277134146341
        -0.275762195122
        -0.274390243902
        -0.273018292683
        -0.271646341463
        -0.270274390244
        -0.268902439024
        -0.267530487805
        -0.266158536585
        -0.264786585366
        -0.263414634146
        -0.262042682927
        -0.260670731707
        -0.259298780488
        -0.257926829268
        -0.256554878049
        -0.255182926829
        -0.25381097561
        -0.25243902439
        -0.251067073171
        -0.249695121951
        -0.248323170732
        -0.246951219512
        -0.245579268293
        -0.244207317073
        -0.242835365854
        -0.241463414634
        -0.240091463415
        -0.238719512195
        -0.237347560976
        -0.235975609756
        -0.234603658537
        -0.233231707317
        -0.231859756098
        -0.230487804878
        -0.229115853659
        -0.227743902439
        -0.22637195122
        -0.225
        -0.22362804878
        -0.222256097561
        -0.220884146341
        -0.219512195122
        -0.218140243902
        -0.216768292683
        -0.215396341463
        -0.214024390244
        -0.212652439024
        -0.211280487805
        -0.209908536585
        -0.208536585366
        -0.207164634146
        -0.205792682927
        -0.204420731707
        -0.203048780488
        -0.201676829268
        -0.200304878049
        -0.198932926829
        -0.19756097561
        -0.19618902439
        -0.194817073171
        -0.193445121951
        -0.192073170732
        -0.190701219512
        -0.189329268293
        -0.187957317073
        -0.186585365854
        -0.185213414634
        -0.183841463415
        -0.182469512195
        -0.181097560976
        -0.179725609756
        -0.178353658537
        -0.176981707317
        -0.175609756098
        -0.174237804878
        -0.172865853659
        -0.171493902439
        -0.17012195122
        -0.16875
        -0.16737804878
        -0.166006097561
        -0.164634146341
        -0.163262195122
        -0.161890243902
        -0.160518292683
        -0.159146341463
        -0.157774390244
        -0.156402439024
        -0.155030487805
        -0.153658536585
        -0.152286585366
        -0.150914634146
        -0.149542682927
        -0.148170731707
        -0.146798780488
        -0.145426829268
        -0.144054878049
        -0.142682926829
        -0.14131097561
        -0.13993902439
        -0.138567073171
        -0.137195121951
        -0.135823170732
        -0.134451219512
        -0.133079268293
        -0.131707317073
        -0.130335365854
        -0.128963414634
        -0.127591463415
        -0.126219512195
        -0.124847560976
        -0.123475609756
        -0.122103658537
        -0.120731707317
        -0.119359756098
        -0.117987804878
        -0.116615853659
        -0.115243902439
        -0.11387195122
        -0.1125
        -0.11112804878
        -0.109756097561
        -0.108384146341
        -0.107012195122
        -0.105640243902
        -0.104268292683
        -0.102896341463
        -0.101524390244
        -0.100152439024
        -0.0987804878049
        -0.0974085365854
        -0.0960365853659
        -0.0946646341463
        -0.0932926829268
        -0.0919207317073
        -0.0905487804878
        -0.0891768292683
        -0.0878048780488
        -0.0864329268293
        -0.0850609756098
        -0.0836890243902
        -0.0823170731707
        -0.0809451219512
        -0.0795731707317
        -0.0782012195122
        -0.0768292682927
        -0.0754573170732
        -0.0740853658537
        -0.0727134146341
        -0.0713414634146
        -0.0699695121951
        -0.0685975609756
        -0.0672256097561
        -0.0658536585366
        -0.0644817073171
        -0.0631097560976
        -0.061737804878
        -0.0603658536585
        -0.058993902439
        -0.0576219512195
        -0.05625
        -0.0548780487805
        -0.053506097561
        -0.0521341463415
        -0.050762195122
        -0.0493902439024
        -0.0480182926829
        -0.0466463414634
        -0.0452743902439
        -0.0439024390244
        -0.0425304878049
        -0.0411585365854
        -0.0397865853659
        -0.0384146341463
        -0.0370426829268
        -0.0356707317073
        -0.0342987804878
        -0.0329268292683
        -0.0315548780488
        -0.0301829268293
        -0.0288109756098
        -0.0274390243902
        -0.0260670731707
        -0.0246951219512
        -0.0233231707317
        -0.0219512195122
        -0.0205792682927
        -0.0192073170732
        -0.0178353658537
        -0.0164634146341
        -0.0150914634146
        -0.0137195121951
        -0.0123475609756
        -0.0109756097561
        -0.00960365853659
        -0.00823170731707
        -0.00685975609756
        -0.00548780487805
        -0.00411585365854
        -0.00274390243902
        -0.00137195121951
        0.0
        0.00137195121951
        0.00274390243902
        0.00411585365854
        0.00548780487805
        0.00685975609756
        0.00823170731707
        0.00960365853659
        0.0109756097561
        0.0123475609756
        0.0137195121951
        0.0150914634146
        0.0164634146341
        0.0178353658537
        0.0192073170732
        0.0205792682927
        0.0219512195122
        0.0233231707317
        0.0246951219512
        0.0260670731707
        0.0274390243902
        0.0288109756098
        0.0301829268293
        0.0315548780488
        0.0329268292683
        0.0342987804878
        0.0356707317073
        0.0370426829268
        0.0384146341463
        0.0397865853659
        0.0411585365854
        0.0425304878049
        0.0439024390244
        0.0452743902439
        0.0466463414634
        0.0480182926829
        0.0493902439024
        0.050762195122
        0.0521341463415
        0.053506097561
        0.0548780487805
        0.05625
        0.0576219512195
        0.058993902439
        0.0603658536585
        0.061737804878
        0.0631097560976
        0.0644817073171
        0.0658536585366
        0.0672256097561
        0.0685975609756
        0.0699695121951
        0.0713414634146
        0.0727134146341
        0.0740853658537
        0.0754573170732
        0.0768292682927
        0.0782012195122
        0.0795731707317
        0.0809451219512
        0.0825609830039
        0.0839165023966
        0.0852598541349
        0.0865913410911
        0.0879112539305
        0.0892198717857
        0.0905174628833
        0.091804285129
        0.0930805866516
        0.0943466063117
        0.0956025741768
        0.0968487119654
        0.0980852334628
        0.0993123449111
        0.100530245374
        0.101739127082
        0.10293917575
        0.104130570888
        0.105313486078
        0.106488089248
        0.107654542926
        0.108813004473
        0.109963626316
        0.111106556155
        0.112241937169
        0.113369908203
        0.11449060395
        0.115604155121
        0.11671068861
        0.117810327643
        0.118903191927
        0.119989397788
        0.121069058299
        0.122142283412
        0.123209180071
        0.124269852328
        0.125324401448
        0.126372926016
        0.127415522031
        0.128452283002
        0.129483300035
        0.130508661921
        0.131528455212
        0.132542764305
        0.133551671512
        0.134555257131
        0.135553599516
        0.136546775141
        0.137534858662
        0.138517922975
        0.139496039278
        0.14046927712
        0.141437704457
        0.142401387702
        0.143360391771
        0.144314780135
        0.145264614857
        0.146209956641
        0.147150864871
        0.14808739765
        0.149019611839
        0.149947563094
        0.150871305899
        0.151790893603
        0.152706378452
        0.153617811619
        0.154525243235
        0.155428722421
        0.15632829731
        0.15722401508
        0.15811592198
        0.159004063352
        0.159888483657
        0.160769226498
        0.161646334647
        0.162519850061
        0.163389813907
        0.164256266581
        0.165119247729
        0.165978796265
        0.166834950394
        0.167687747621
        0.168537224778
        0.169383418036
        0.170226362922
        0.171066094334
        0.17190264656
        0.172736053287
        0.173566347621
        0.174393562099
        0.1752177287
        0.176038878861
        0.176857043491
        0.177672252979
        0.17848453721
        0.179293925575
        0.18010044698
        0.180904129862
        0.181705002197
        0.182503091507
        0.183298424877
        0.18409102896
        0.184880929987
        0.185668153777
        0.186452725745
        0.187234670913
        0.188014013916
        0.188790779012
        0.189564990088
        0.19033667067
        0.191105843929
        0.191872532689
        0.192636759434
        0.193398546317
        0.194157915163
        0.194914887477
        0.195669484454
        0.19642172698
        0.197171635641
        0.19791923073
        0.198664532248
        0.199407559918
        0.20014833318
        0.200886871207
        0.201623192903
        0.202357316909
        0.203089261612
        0.203819045146
        0.204546685398
        0.205272200013
        0.205995606399
        0.20671692173
        0.20743616295
        0.20815334678
        0.20886848972
        0.209581608052
        0.210292717848
        0.211001834969
        0.211708975071
        0.21241415361
        0.213117385844
        0.213818686836
        0.214518071457
        0.215215554394
        0.215911150147
        0.216604873035
        0.217296737201
        0.217986756611
        0.218674945061
        0.219361316176
        0.220045883418
        0.220728660082
        0.221409659306
        0.222088894068
        0.222766377192
        0.223442121348
        0.224116139058
        0.224788442694
        0.225459044485
        0.226127956516
        0.22679519073
        0.227460758936
        0.228124672802
        0.228786943865
        0.22944758353
        0.230106603071
        0.230764013637
        0.231419826248
        0.232074051803
        0.232726701077
        0.233377784728
        0.234027313293
        0.234675297195
        0.235321746742
        0.235966672129
        0.23661008344
        0.237251990649
        0.237892403625
        0.238531332127
        0.239168785813
        0.239804774237
        0.240439306851
        0.241072393007
        0.241704041959
        0.242334262865
        0.242963064786
        0.243590456689
        0.244216447448
        0.244841045847
        0.245464260578
        0.246086100245
        0.246706573363
        0.247325688363
        0.247943453589
        0.248559877301
        0.249174967677
        0.249788732813
        0.250401180725
        0.251012319347
        0.251622156538
        0.252230700078
        0.25283795767
        0.253443936945
        0.254048645456
        0.254652090685
        0.255254280041
        0.255855220863
        0.256454920418
        0.257053385904
        0.257650624452
        0.258246643124
        0.258841448917
        0.259435048759
        0.260027449517
        0.260618657992
        0.261208680922
        0.261797524981
        0.262385196784
        0.262971702885
        0.263557049776
        0.26414124389
        0.264724291603
        0.265306199233
        0.26588697304
        0.266466619227
        0.267045143944
        0.267622553283
        0.268198853284
        0.268774049931
        0.269348149158
        0.269921156845
        0.270493078821
        0.271063920862
        0.271633688697
        0.272202388002
        0.272770024405
        0.273336603487
        0.273902130779
        0.274466611764
        0.275030051881
        0.275592456519
        0.276153831025
        0.276714180697
        0.277273510791
        0.277831826518
        0.278389133045
        0.278945435497
        0.279500738954
        0.280055048456
        0.280608369001
        0.281160705545
        0.281712063004
        0.282262446253
        0.282811860127
        0.283360309424
        0.283907798899
        0.284454333273
        0.284999917225
        0.285544555399
        0.286088252402
        0.286631012801
        0.28717284113
        0.287713741886
        0.28825371953
        0.288792778487
        0.28933092315
        0.289868157875
        0.290404486984
        0.290939914768
        0.291474445481
        0.292008083346
        0.292540832554
        0.293072697262
        0.293603681597
        0.294133789653
        0.294663025493
        0.29519139315
        0.295718896625
        0.29624553989
        0.296771326887
        0.297296261526
        0.297820347692
        0.298343589237
        0.298865989986
        0.299387553737
        0.299908284256
        0.300428185286
        0.300947260538
        0.301465513698
        0.301982948426
        0.302499568353
        0.303015377085
        0.303530378201
        0.304044575255
        0.304557971774
        0.305070571262
        0.305582377195
        0.306093393025
        0.306603622181
        0.307113068066
        0.307621734059
        0.308129623516
        0.308636739767
        0.309143086122
        0.309648665865
        0.310153482259
        0.310657538541
        0.31116083793
        0.311663383619
        0.312165178781
        0.312666226565
        0.313166530101
        0.313666092495
        0.314164916834
        0.314663006181
        0.315160363581
        0.315656992058
        0.316152894613
        0.316648074229
        0.317142533869
        0.317636276475
        0.318129304969
        0.318621622254
        0.319113231215
        0.319604134715
        0.320094335601
        0.320583836699
        0.321072640816
        0.321560750743
        0.322048169252
        0.322534899093
        0.323020943004
        0.323506303701
        0.323990983884
        0.324474986235
        0.324958313418
        0.325440968082
        0.325922952856
        0.326404270355
        0.326884923175
        0.327364913896
        0.327844245083
        0.328322919283
        0.328800939027
        0.329278306831
        0.329755025194
        0.330231096601
        0.330706523519
        0.331181308402
        0.331655453686
        0.332128961794
        0.332601835134
        0.333074076097
        0.333545687061
        0.334016670389
        0.334487028429
        0.334956763515
        0.335425877967
        0.33589437409
        0.336362254175
        0.3368295205
        0.337296175328
        0.33776222091
        0.338227659481
        0.338692493265
        0.33915672447
        0.339620355293
        0.340083387918
        0.340545824514
        0.341007667238
        0.341468918235
        0.341929579636
        0.34238965356
        0.342849142114
        0.343308047392
        0.343766371476
        0.344224116435
        0.344681284326
        0.345137877197
        0.345593897079
        0.346049345995
        0.346504225954
        0.346958538957
        0.347412286988
        0.347865472025
        0.34831809603
        0.348770160958
        0.34922166875
        0.349672621336
        0.350123020636
        0.350572868559
        0.351022167004
        0.351470917857
        0.351919122995
        0.352366784284
        0.352813903581
        0.353260482729
        0.353706523564
        0.354152027912
        0.354596997585
        0.355041434389
        0.355485340118
        0.355928716557
        0.356371565481
        0.356813888653
        0.357255687831
        0.357696964759
        0.358137721173
        0.358577958799
        0.359017679357
        0.359456884552
        0.359895576083
        0.360333755641
        0.360771424905
        0.361208585546
        0.361645239227
        0.362081387601
        0.362517032313
        0.362952174999
        0.363386817284
        0.363820960788
        0.364254607121
        0.364687757883
        0.365120414667
        0.365552579058
        0.365984252631
        0.366415436955
        0.366846133589
        0.367276344083
        0.367706069982
        0.368135312821
        0.368564074126
        0.368992355417
        0.369420158205
        0.369847483995
        0.370274334281
        0.370700710552
        0.371126614288
        0.371552046963
        0.371977010041
        0.372401504981
        0.372825533232
        0.373249096239
        0.373672195436
        0.374094832252
        0.374517008109
        0.37493872442
        0.375359982592
        0.375780784026
        0.376201130114
        0.376621022241
        0.377040461788
        0.377459450125
        0.377877988619
        0.378296078627
        0.378713721502
        0.379130918588
        0.379547671224
        0.379963980741
        0.380379848465
        0.380795275714
        0.381210263801
        0.381624814032
        0.382038927706
        0.382452606116
        0.382865850549
        0.383278662286
        0.3836910426
        0.384102992761
        0.38451451403
        0.384925607664
        0.385336274912
        0.385746517018
        0.386156335221
        0.386565730752
        0.386974704838
        0.387383258698
        0.387791393549
        0.388199110598
        0.388606411049
        0.389013296098
        0.389419766938
        0.389825824755
        0.39023147073
        0.390636706037
        0.391041531846
        0.391445949321
        0.39184995962
        0.392253563897
        0.3926567633
        0.393059558971
        0.393461952048
        0.393863943661
        0.394265534939
        0.394666727003
        0.395067520968
        0.395467917947
        0.395867919045
        0.396267525363
        0.396666737999
        0.397065558042
        0.397463986578
        0.39786202469
        0.398259673452
        0.398656933938
        0.399053807212
        0.399450294338
        0.399846396371
        0.400242114365
        0.400637449366
        0.401032402417
        0.401426974557
        0.401821166819
        0.402214980231
        0.402608415819
        0.403001474602
        0.403394157596
        0.40378646581
        0.404178400251
        0.404569961922
        0.404961151819
        0.405351970936
        0.405742420261
        0.406132500779
        0.40652221347
        0.40691155931
        0.407300539269
        0.407689154316
        0.408077405414
        0.408465293521
        0.408852819592
        0.409239984579
        0.409626789427
        0.410013235079
        0.410399322474
        0.410785052545
        0.411170426224
        0.411555444436
        0.411940108105
        0.412324418149
        0.412708375482
        0.413091981015
        0.413475235655
        0.413858140306
        0.414240695865
        0.41462290323
        0.415004763291
        0.415386276936
        0.41576744505
        0.416148268513
        0.416528748201
        0.416908884989
        0.417288679745
        0.417668133335
